Polaris-FE/assets/images/MB1.svg

<?xml version="1.0" encoding="UTF-8" standalone="no"?>
<!-- Created with Inkscape (http://www.inkscape.org/) -->

<svg
   xmlns:dc="http://purl.org/dc/elements/1.1/"
   xmlns:cc="http://creativecommons.org/ns#"
   xmlns:rdf="http://www.w3.org/1999/02/22-rdf-syntax-ns#"
   xmlns:svg="http://www.w3.org/2000/svg"
   xmlns="http://www.w3.org/2000/svg"
   xmlns:sodipodi="http://sodipodi.sourceforge.net/DTD/sodipodi-0.dtd"
   xmlns:inkscape="http://www.inkscape.org/namespaces/inkscape"
   width="1024"
   height="1024"
   id="svg2"
   version="1.1"
   inkscape:version="0.91 r13725"
   sodipodi:docname="MB-1.svg">
  <defs
     id="defs4" />
  <sodipodi:namedview
     id="base"
     pagecolor="#ffffff"
     bordercolor="#666666"
     borderopacity="1.0"
     inkscape:pageopacity="0.0"
     inkscape:pageshadow="2"
     inkscape:zoom="0.7"
     inkscape:cx="64.381206"
     inkscape:cy="563.44866"
     inkscape:document-units="px"
     inkscape:current-layer="g3906"
     showgrid="false"
     inkscape:snap-bbox="true"
     inkscape:bbox-paths="false"
     inkscape:bbox-nodes="false"
     inkscape:snap-bbox-edge-midpoints="false"
     inkscape:snap-bbox-midpoints="false"
     inkscape:snap-page="false"
     inkscape:object-paths="true"
     inkscape:snap-intersection-paths="true"
     inkscape:object-nodes="true"
     inkscape:window-width="1920"
     inkscape:window-height="1014"
     inkscape:window-x="0"
     inkscape:window-y="27"
     inkscape:window-maximized="1"
     inkscape:snap-nodes="true" />
  <metadata
     id="metadata7">
    <rdf:RDF>
      <cc:Work
         rdf:about="">
        <dc:format>image/svg+xml</dc:format>
        <dc:type
           rdf:resource="http://purl.org/dc/dcmitype/StillImage" />
        <dc:title />
      </cc:Work>
    </rdf:RDF>
  </metadata>
  <g
     inkscape:label="1 vec copy"
     id="g3906"
     inkscape:groupmode="layer"
     style="display:inline">
    <path
       inkscape:connector-curvature="0"
       id="path3908"
       d="m 358.57143,146.85714 102.14286,734.28572 15.71428,0 32.14286,111.42857 226.42857,0 0,8.57147 46.42857,0 0,9.2857 198.92857,0 0,-354.12413 -128.79854,0 0,-543.73304 -36.5586,0 0,17.14285 -184.28571,0 0,-16.42857 -25,0 0,-15.714282 -208.57143,0 0,49.285712 z"
       style="fill:#f7d6d6;fill-opacity:1;stroke:#000000;stroke-width:2;stroke-miterlimit:4;stroke-opacity:1;stroke-dasharray:none" />
    <path
       inkscape:connector-curvature="0"
       id="path3910"
       d="m 517.85714,97.571428 0,71.428572 29.28572,0 0,38.57143 72.14285,0 0,-94.28572 -13.57142,0 0,-15.714282 z"
       style="fill:#da3636;fill-opacity:1;stroke:#000000;stroke-width:2;stroke-miterlimit:4;stroke-opacity:1;stroke-dasharray:none" />
    <path
       inkscape:connector-curvature="0"
       id="path3912"
       d="m 619.28571,153.28571 35,0 17.66827,30.60234 0,52.96909 179.60462,0 0,-124.28571 -36.5586,0 0,17.14285 -184.28571,0 0,-16.42857 -11.42858,0 z"
       style="fill:#da3636;fill-opacity:1;stroke:#000000;stroke-width:2;stroke-miterlimit:4;stroke-opacity:1;stroke-dasharray:none" />
    <path
       sodipodi:nodetypes="ccccccc"
       inkscape:connector-curvature="0"
       id="path3914"
       d="m 549.28571,241.14286 62.85715,0 199.32896,53.41003 0,179.44711 -178.12618,47.72877 -84.05993,0 z"
       style="fill:#da3636;fill-opacity:1;stroke:#000000;stroke-width:2;stroke-miterlimit:4;stroke-opacity:1;stroke-dasharray:none" />
    <path
       inkscape:connector-curvature="0"
       id="path3916"
       d="m 760,236.85714 0,43.90392 51.47182,13.79183 0,179.44711 -122.0369,32.69969 0,33.72888 45.56508,0 0,41.42857 25.71429,0 0,-63.57143 90.84431,0 0,-281.42857 z"
       style="fill:#da3636;fill-opacity:1;stroke:#000000;stroke-width:2;stroke-miterlimit:4;stroke-opacity:1;stroke-dasharray:none" />
    <path
       inkscape:connector-curvature="0"
       id="path3918"
       d="m 689.43492,540.42857 -74.43492,0 0,-18.6998 18.34564,0 56.08928,-15.02908 z"
       style="fill:#da3636;fill-opacity:1;stroke:#000000;stroke-width:2;stroke-miterlimit:4;stroke-opacity:1;stroke-dasharray:none" />
    <path
       inkscape:connector-curvature="0"
       id="path3920"
       d="m 515.71429,505.42857 0,-72.85714"
       style="fill:#da3636;fill-opacity:1;stroke:#000000;stroke-width:2;stroke-miterlimit:4;stroke-opacity:1;stroke-dasharray:none" />
    <path
       inkscape:connector-curvature="0"
       id="path3922"
       d="m 515.71429,442.92857 33.57142,0"
       style="fill:#da3636;fill-opacity:1;stroke:#000000;stroke-width:2;stroke-miterlimit:4;stroke-opacity:1;stroke-dasharray:none" />
    <path
       sodipodi:nodetypes="cc"
       inkscape:connector-curvature="0"
       id="path3924"
       d="m 515.71429,402.21429 0,-164.28572"
       style="fill:#da3636;fill-opacity:1;stroke:#000000;stroke-width:2;stroke-miterlimit:4;stroke-opacity:1;stroke-dasharray:none" />
    <rect
       y="656.30444"
       x="851.55859"
       height="176.26695"
       width="128.79854"
       id="rect3926"
       style="fill:#da3636;fill-opacity:1;stroke:#000000;stroke-width:2;stroke-miterlimit:4;stroke-opacity:1;stroke-dasharray:none" />
    <rect
       y="664.71429"
       x="735"
       height="100"
       width="116.5584"
       id="rect3928"
       style="fill:#da3636;fill-opacity:1;stroke:#000000;stroke-width:2;stroke-miterlimit:4;stroke-opacity:1;stroke-dasharray:none" />
    <rect
       y="566.14288"
       x="760.71429"
       height="58.214287"
       width="39.999996"
       id="rect3930"
       style="fill:#da3636;fill-opacity:1;stroke:#000000;stroke-width:2;stroke-miterlimit:4;stroke-opacity:1;stroke-dasharray:none" />
    <rect
       y="624.35718"
       x="760.71429"
       height="40.357124"
       width="90.844284"
       id="rect3932"
       style="fill:#da3636;fill-opacity:1;stroke:#000000;stroke-width:2;stroke-miterlimit:4;stroke-opacity:1;stroke-dasharray:none" />
    <rect
       y="518.28571"
       x="800.71429"
       height="106.07146"
       width="50.844311"
       id="rect3934"
       style="fill:#da3636;fill-opacity:1;stroke:#000000;stroke-width:2;stroke-miterlimit:4;stroke-opacity:1;stroke-dasharray:none" />
    <rect
       y="518.28571"
       x="760.71429"
       height="47.857174"
       width="40"
       id="rect3936"
       style="fill:#da3636;fill-opacity:1;stroke:#000000;stroke-width:2;stroke-miterlimit:4;stroke-opacity:1;stroke-dasharray:none" />
    <rect
       y="540.42859"
       x="694.98492"
       height="41.42857"
       width="40.015049"
       id="rect3938"
       style="fill:#da3636;fill-opacity:1;stroke:#000000;stroke-width:2;stroke-miterlimit:4;stroke-opacity:1;stroke-dasharray:none" />
    <rect
       y="540.42859"
       x="657.10425"
       height="41.428589"
       width="37.880692"
       id="rect3940"
       style="fill:#da3636;fill-opacity:1;stroke:#000000;stroke-width:2;stroke-miterlimit:4;stroke-opacity:1;stroke-dasharray:none" />
    <rect
       y="540.42859"
       x="615"
       height="41.428608"
       width="42.104248"
       id="rect3942"
       style="fill:#da3636;fill-opacity:1;stroke:#000000;stroke-width:2;stroke-miterlimit:4;stroke-opacity:1;stroke-dasharray:none" />
    <rect
       y="625.42853"
       x="615"
       height="39.285767"
       width="41.785706"
       id="rect3944"
       style="fill:#da3636;fill-opacity:1;stroke:#000000;stroke-width:2;stroke-miterlimit:4;stroke-opacity:1;stroke-dasharray:none" />
    <rect
       y="625.42853"
       x="656.78571"
       height="39.285767"
       width="38.928589"
       id="rect3946"
       style="fill:#da3636;fill-opacity:1;stroke:#000000;stroke-width:2;stroke-miterlimit:4;stroke-opacity:1;stroke-dasharray:none" />
    <rect
       y="625.42853"
       x="695.71429"
       height="39.285767"
       width="39.285702"
       id="rect3948"
       style="fill:#da3636;fill-opacity:1;stroke:#000000;stroke-width:2;stroke-miterlimit:4;stroke-opacity:1;stroke-dasharray:none" />
    <rect
       y="664.71429"
       x="615"
       height="60.280552"
       width="120"
       id="rect3950"
       style="fill:#da3636;fill-opacity:1;stroke:#000000;stroke-width:2;stroke-miterlimit:4;stroke-opacity:1;stroke-dasharray:none" />
    <path
       sodipodi:nodetypes="cccccccccccc"
       inkscape:connector-curvature="0"
       id="path3952"
       d="m 683.125,725 0,48.5 -7.34375,0 0,36.59375 31.84375,0 0,22.47462 20.9375,0 0,-22.47462 6.4375,0 0,-36.59375 0,-48.5 z"
       style="fill:#da3636;fill-opacity:1;stroke:#000000;stroke-width:2;stroke-miterlimit:4;stroke-opacity:1;stroke-dasharray:none" />
    <rect
       y="764.71429"
       x="735"
       height="45.379456"
       width="8.4722738"
       id="rect3954"
       style="fill:#da3636;fill-opacity:1;stroke:#000000;stroke-width:2;stroke-miterlimit:4;stroke-opacity:1;stroke-dasharray:none" />
    <rect
       y="764.71429"
       x="743.47229"
       height="45.379456"
       width="27.274118"
       id="rect3956"
       style="fill:#da3636;fill-opacity:1;stroke:#000000;stroke-width:2;stroke-miterlimit:4;stroke-opacity:1;stroke-dasharray:none" />
    <path
       sodipodi:nodetypes="cccccccc"
       inkscape:connector-curvature="0"
       id="path3958"
       d="m 770.75,764.71875 0,45.375 0,22.47462 24.25,0 0,-22.47462 56.5625,0 0,-45.375 z"
       style="fill:#da3636;fill-opacity:1;stroke:#000000;stroke-width:2;stroke-miterlimit:4;stroke-opacity:1;stroke-dasharray:none" />
    <rect
       y="810.09375"
       x="825.54718"
       height="22.477646"
       width="26.011425"
       id="rect3960"
       style="fill:#da3636;fill-opacity:1;stroke:#000000;stroke-width:2;stroke-miterlimit:4;stroke-opacity:1;stroke-dasharray:none" />
    <rect
       y="810.09375"
       x="795"
       height="22.477646"
       width="30.54718"
       id="rect3962"
       style="fill:#da3636;fill-opacity:1;stroke:#000000;stroke-width:2;stroke-miterlimit:4;stroke-opacity:1;stroke-dasharray:none" />
    <path
       id="path3964"
       d="m 906.4375,832.5625 0,28.9375 -47.15625,0 -95.71875,0 0,66.4375 69.65625,0 0,19.28125 26.0625,0 0,-19.28125 0,-20.71875 70.375,0 0,103.21875 50.6875,0 0,-141.78125 0,-36.09375 -73.90625,0 z"
       style="fill:#da3636;fill-opacity:1;stroke:#000000;stroke-width:2;stroke-miterlimit:4;stroke-opacity:1;stroke-dasharray:none"
       inkscape:connector-curvature="0" />
    <path
       id="path3966"
       d="m 859.28125,907.21875 0,40 -26.0625,0 0,-19.28125 -69.65625,0 0,-18.9375 -28.5625,0 0,92.1562 28.5625,0 17.875,0 0,9.2813 77.84375,0 70.375,0 0,-103.21875 -70.375,0 z"
       style="fill:#da3636;fill-opacity:1;stroke:#000000;stroke-width:2;stroke-miterlimit:4;stroke-opacity:1;stroke-dasharray:none"
       inkscape:connector-curvature="0" />
    <rect
       y="874.71429"
       x="735"
       height="34.285713"
       width="28.5625"
       id="rect3968"
       style="fill:#da3636;fill-opacity:1;stroke:#000000;stroke-width:2;stroke-miterlimit:4;stroke-opacity:1;stroke-dasharray:none" />
    <path
       id="path3970"
       d="m 651.84375,792.03125 0,18.0625 0,22.46875 55.78125,0 0,-22.46875 -38.53125,0 0,-18.0625 -17.25,0 z"
       style="fill:#da3636;fill-opacity:1;stroke:#000000;stroke-width:2;stroke-miterlimit:4;stroke-opacity:1;stroke-dasharray:none"
       inkscape:connector-curvature="0" />
    <path
       id="path3972"
       d="m 598.25,774.75 0,74.46875 53.59375,0 0,-57.1875 17.25,0 0,-17.28125 -17.25,0 -53.59375,0 z"
       style="fill:#da3636;fill-opacity:1;stroke:#000000;stroke-width:2;stroke-miterlimit:4;stroke-opacity:1;stroke-dasharray:none"
       inkscape:connector-curvature="0" />
    <rect
       y="724.99487"
       x="615"
       height="49.755154"
       width="54.09375"
       id="rect3974"
       style="fill:#da3636;fill-opacity:1;stroke:#000000;stroke-width:2;stroke-miterlimit:4;stroke-opacity:1;stroke-dasharray:none" />
    <rect
       y="754.79437"
       x="615"
       height="19.955654"
       width="22.658794"
       id="rect3976"
       style="fill:#da3636;fill-opacity:1;stroke:#000000;stroke-width:2;stroke-miterlimit:4;stroke-opacity:1;stroke-dasharray:none" />
    <path
       inkscape:connector-curvature="0"
       id="path3978"
       d="m 425.23112,626.06103 85.84031,0 0,168.29611"
       style="fill:none;stroke:#000000;stroke-width:2;stroke-miterlimit:4;stroke-opacity:1;stroke-dasharray:none;fill-opacity:1" />
    <path
       inkscape:connector-curvature="0"
       id="path3980"
       d="m 469.28572,626.06103 0,168.29611"
       style="fill:#da3636;fill-opacity:1;stroke:#000000;stroke-width:2;stroke-miterlimit:4;stroke-opacity:1;stroke-dasharray:none" />
    <path
       inkscape:connector-curvature="0"
       id="path3982"
       d="m 441.4733,742.82299 27.81242,0"
       style="fill:#da3636;fill-opacity:1;stroke:#000000;stroke-width:2;stroke-miterlimit:4;stroke-opacity:1;stroke-dasharray:none" />
    <path
       inkscape:connector-curvature="0"
       id="path3984"
       d="m 476.42857,881.14286 39.28572,0 L 507.5,854 l -26.07143,0"
       style="fill:none;stroke:#000000;stroke-width:2;stroke-miterlimit:4;stroke-opacity:1;stroke-dasharray:none;fill-opacity:1" />
    <path
       inkscape:connector-curvature="0"
       id="path3986"
       d="m 515.71429,881.14286 30.71428,111.42857"
       style="fill:#da3636;fill-opacity:1;stroke:#000000;stroke-width:2;stroke-miterlimit:4;stroke-opacity:1;stroke-dasharray:none" />
    <path
       inkscape:connector-curvature="0"
       id="path3988"
       d="m 408.39731,505.04597 40.88841,0 0,-177.83169 -32.14286,0 14.64286,97.85715"
       style="fill:none;stroke:#000000;stroke-width:2;stroke-miterlimit:4;stroke-opacity:1;stroke-dasharray:none;fill-opacity:1" />
    <path
       inkscape:connector-curvature="0"
       id="path3990"
       d="m 422.14286,327.21428 -17.85714,-130"
       style="fill:#da3636;fill-opacity:1;stroke:#000000;stroke-width:2;stroke-miterlimit:4;stroke-opacity:1;stroke-dasharray:none" />
    <rect
       y="97.571426"
       x="397.14285"
       height="48.571426"
       width="33.214283"
       id="rect3992"
       style="fill:#da3636;stroke:#000000;stroke-width:2;stroke-miterlimit:4;stroke-opacity:1;stroke-dasharray:none;fill-opacity:1" />
    <rect
       y="161.5"
       x="723.57141"
       height="75.357147"
       width="127.98717"
       id="rect3994"
       style="fill:#da3636;fill-opacity:1;stroke:#000000;stroke-width:2;stroke-miterlimit:4;stroke-opacity:1;stroke-dasharray:none" />
    <path
       inkscape:connector-curvature="0"
       id="path3997"
       d="m 682.5,194 28.57143,0 c 0,0 4.28572,-21.07143 -9.28571,-36.07143"
       style="fill:#da3636;fill-opacity:1;stroke:#000000;stroke-width:2;stroke-miterlimit:4;stroke-opacity:1;stroke-dasharray:none" />
    <path
       inkscape:connector-curvature="0"
       id="path3999"
       d="m 656.78572,145.78571 c 27.85714,-16.07143 44.64288,-3.57143 55.71428,9.64286"
       style="fill:#da3636;fill-opacity:1;stroke:#000000;stroke-width:2;stroke-miterlimit:4;stroke-opacity:1;stroke-dasharray:none" />
    <path
       inkscape:connector-curvature="0"
       id="path4001"
       d="m 547.14286,169 0,-39.49008"
       style="fill:#da3636;fill-opacity:1;stroke:#000000;stroke-width:2;stroke-miterlimit:4;stroke-opacity:1;stroke-dasharray:none" />
  </g>
</svg>

<svg width="1024" height="1024" viewBox="0 0 1024 1024" fill="none" xmlns="http://www.w3.org/2000/svg">
<path d="M358.571 146.857L460.714 881.143H476.429L508.571 992.571H735V1001.14H781.429V1010.43H980.357V656.304H851.559V112.571H815V129.714H630.714V113.286H605.714V97.5714H397.143V146.857H358.571Z" stroke="black" stroke-width="2"/>
<path d="M517.857 97.5714V169H547.143V207.571H619.286V113.286H605.714V97.5714H517.857Z" stroke="black" stroke-width="2"/>
<path d="M619.286 153.286H654.286L671.954 183.888V236.857H851.559V112.571H815V129.714H630.714V113.286H619.286V153.286Z" stroke="black" stroke-width="2"/>
<path d="M549.286 241.143H612.143L811.472 294.553V474L633.346 521.729H549.286V241.143Z" stroke="black" stroke-width="2"/>
<path d="M760 236.857V280.761L811.472 294.553V474L689.435 506.7V540.429H735V581.857H760.714V518.286H851.559V236.857H760Z" stroke="black" stroke-width="2"/>
<path d="M689.435 540.429H615V521.729H633.346L689.435 506.7V540.429Z" stroke="black" stroke-width="2"/>
<path d="M515.714 505.429V432.571" stroke="black" stroke-width="2"/>
<path d="M515.714 442.929H549.286" stroke="black" stroke-width="2"/>
<path d="M515.714 402.214V237.929" stroke="black" stroke-width="2"/>
<path d="M980.357 656.304H851.559V832.571H980.357V656.304Z" stroke="black" stroke-width="2"/>
<path d="M851.558 664.714H735V764.714H851.558V664.714Z" stroke="black" stroke-width="2"/>
<path d="M800.714 566.143H760.714V624.357H800.714V566.143Z" stroke="black" stroke-width="2"/>
<path d="M851.559 624.357H760.714V664.714H851.559V624.357Z" stroke="black" stroke-width="2"/>
<path d="M851.559 518.286H800.714V624.357H851.559V518.286Z" stroke="black" stroke-width="2"/>
<path d="M800.714 518.286H760.714V566.143H800.714V518.286Z" stroke="black" stroke-width="2"/>
<path d="M735 540.429H694.985V581.857H735V540.429Z" stroke="black" stroke-width="2"/>
<path d="M694.985 540.429H657.104V581.857H694.985V540.429Z" stroke="black" stroke-width="2"/>
<path d="M657.104 540.429H615V581.857H657.104V540.429Z" stroke="black" stroke-width="2"/>
<path d="M656.786 625.428H615V664.714H656.786V625.428Z" stroke="black" stroke-width="2"/>
<path d="M695.714 625.428H656.786V664.714H695.714V625.428Z" stroke="black" stroke-width="2"/>
<path d="M735 625.428H695.714V664.714H735V625.428Z" stroke="black" stroke-width="2"/>
<path d="M735 664.714H615V724.995H735V664.714Z" stroke="black" stroke-width="2"/>
<path d="M683.125 725V773.5H675.781V810.094H707.625V832.568H728.562V810.094H735V773.5V725H683.125Z" stroke="black" stroke-width="2"/>
<path d="M743.472 764.714H735V810.094H743.472V764.714Z" stroke="black" stroke-width="2"/>
<path d="M770.746 764.714H743.472V810.094H770.746V764.714Z" stroke="black" stroke-width="2"/>
<path d="M770.75 764.719V810.094V832.568H795V810.094H851.562V764.719H770.75Z" stroke="black" stroke-width="2"/>
<path d="M851.559 810.094H825.547V832.571H851.559V810.094Z" stroke="black" stroke-width="2"/>
<path d="M825.547 810.094H795V832.571H825.547V810.094Z" stroke="black" stroke-width="2"/>
<path d="M906.438 832.562V861.5H859.281H763.562V927.938H833.219V947.219H859.281V927.938V907.219H929.656V1010.44H980.344V868.656V832.562H906.438Z" stroke="black" stroke-width="2"/>
<path d="M859.281 907.219V947.219H833.219V927.938H763.562V909H735V1001.16H763.562H781.438V1010.44H859.281H929.656V907.219H859.281Z" stroke="black" stroke-width="2"/>
<path d="M763.562 874.714H735V909H763.562V874.714Z" stroke="black" stroke-width="2"/>
<path d="M651.844 792.031V810.094V832.562H707.625V810.094H669.094V792.031H651.844Z" stroke="black" stroke-width="2"/>
<path d="M598.25 774.75V849.219H651.844V792.031H669.094V774.75H651.844H598.25Z" stroke="black" stroke-width="2"/>
<path d="M669.094 724.995H615V774.75H669.094V724.995Z" stroke="black" stroke-width="2"/>
<path d="M637.659 754.794H615V774.75H637.659V754.794Z" stroke="black" stroke-width="2"/>
<path d="M425.231 626.061H511.071V794.357" stroke="black" stroke-width="2"/>
<path d="M469.286 626.061V794.357" stroke="black" stroke-width="2"/>
<path d="M441.473 742.823H469.286" stroke="black" stroke-width="2"/>
<path d="M476.428 881.143H515.714L507.5 854H481.428" stroke="black" stroke-width="2"/>
<path d="M515.714 881.143L546.429 992.571" stroke="black" stroke-width="2"/>
<path d="M408.397 505.046H449.286V327.214H417.143L431.786 425.071" stroke="black" stroke-width="2"/>
<path d="M422.143 327.214L404.286 197.214" stroke="black" stroke-width="2"/>
<path d="M430.357 97.5714H397.143V146.143H430.357V97.5714Z" stroke="black" stroke-width="2"/>
<path d="M851.559 161.5H723.571V236.857H851.559V161.5Z" stroke="black" stroke-width="2"/>
<path d="M682.5 194H711.071C711.071 194 715.357 172.929 701.786 157.929" stroke="black" stroke-width="2"/>
<path d="M656.786 145.786C684.643 129.714 701.429 142.214 712.5 155.429" stroke="black" stroke-width="2"/>
<path d="M547.143 169V129.51" stroke="black" stroke-width="2"/>
</svg>
